!!!OTL: 208. Reigentanz.*
!!!COM: Volksweise
!!!ARE: Europa, Mitteleuropa, Deutschland, Rheinland
!!!SCT: B0208
!!!TXL: @@DE
!!!YEM: Copyright 1995, estate of Helmut Schaffrath.
**kern	**text
*ICvox	*
*Ivox	*
*clefG2	*
*M2/4	*
*k[b-]	*
*F:	*
=1	=1
!LO:TX:a:t=Mäßig.	!
{8cc	Hei-
16cc	-da,
16cc	die
8dd	lie-
8dd	-be
=2	=2
8cc	Mai-
8b-	-en-
8a}	-ʒeit
{8f	jetʒt
=3	=3
8cc	al-
8cc	-len
8dd	Her-
8dd	-ʒen
=4	=4
8cc	Freu-
8b-	-de
8a	beut.
8r}	.
=5	=5
{8cc	Hätt
8cc	ich
16b-	Ro-
16b-	-ſen
8b-	auf
=6	=6
8a	mei-
8a	-nem
4g}	Hut,
=7	=7
{8cc	hätt
8cc	ich
8b-/	ei-
8b-/	-nen
=8	=8
8a	fröh-
16a	-li-
16a	-chen
4g}	Muth,
=9	=9
{8cc	könnt
8b-	ich
8a	auch
8f	brav
=10	=10
4f	tan-
8f	-ʒen!
8r}	.
==	==
!!!AGN: Jahreszeiten - Lied, Fruehling
!!!GTL: Jahreszeitenlieder
!!!ONB: ESAC (Essen Associative Code) Database: BOEHME
!!!AMT: simple duple
!!!AIN: vox
!!!EED: Helmut Schaffrath
!!!EEV: 1.0
!!@@COMMENT:"Lied von Hoffman von Fallersleben in deſſen "Rheinleben" 1851 Nr. 6. Die Mel.
!! iſt alte Volksweiſe ʒum Reigentanʒ, am Rhein noch 1820 gehört.
!!* Ein Paar tanʒt im Kreiſe herum; die Andern haben ſich angefaßt, tanʒen mit und ſingen.
!!Bei der letʒten Strophe tritt das Paar ab. Ein anderes Mädchen reicht einem andern Burſchen
!!den Roſenkranʒ, beide treten in den Kreis, und ſo gehts fort, bis alle an die Reihe kommen."
!!@@END:
!!!Text: H. von Fallersleben
!!!URL-scan: https://archive.org/details/BoehmeVtLieder1895/page/n193/mode/2up
!!!ENC: Anna Maria Matuszewska
!!!EEV: 2024/24/06
*-	*-
